X: 33856
T: Rectory, The
R: reel
M: 4/4
K: Dminor
de|:fdec dA A/A/A|GBAG FDDG|DAFD EGcG|Adfd egfe|
d(3e/d/c/ec dAAA|GBAG FDDG|DAFD EGcG|F/E/D CD ED D2:|
|:f/e/d Ad edad|e/d/c Gc ecge|f/e/d Ad fdaf|g/f/e cd edd2|
f/e/d Ad edad|e/d/c Gc egfe|1 d(3e/d/c/ec dA A/A/A|GBAG FDD2:|2 d(3e/d/c/ec dA A/A/A||
GBAG FDDG|DAFD EGcG|Adfd egc'g|DAFD EGcG|F/E/D CD EDD2|
DAFD EGcG|Adfd egc'g|afdf gece|f/e/d cd edd2||

